svg/fluentui-system-icons/ic_fluent_backpack_48_filled.svg

<svg width="48" height="48" viewBox="0 0 48 48" fill="none" xmlns="http://www.w3.org/2000/svg">
<path d="M21.1786 18.5C19.6992 18.5 18.5 19.6992 18.5 21.1786C18.5 21.3561 18.6439 21.5 18.8214 21.5H29.1786C29.3561 21.5 29.5 21.3561 29.5 21.1786C29.5 19.6992 28.3008 18.5 26.8214 18.5H21.1786ZM24 4C19.8817 4 16.4902 7.11186 16.0487 11.1125C11.2394 13.872 8 19.0577 8 25V28H40V25C40 19.0577 36.7606 13.872 31.9513 11.1125C31.5098 7.11186 28.1183 4 24 4ZM24 9C22.2362 9 20.539 9.28541 18.9522 9.81256C19.798 7.86336 21.7398 6.5 24 6.5C26.2602 6.5 28.202 7.86336 29.0478 9.81256C27.461 9.28541 25.7638 9 24 9ZM16 21.1786C16 18.3185 18.3185 16 21.1786 16H26.8214C29.6815 16 32 18.3185 32 21.1786C32 22.7368 30.7368 24 29.1786 24H18.8214C17.2632 24 16 22.7368 16 21.1786ZM16 30.5V33.75C16 34.4404 16.5596 35 17.25 35C17.9404 35 18.5 34.4404 18.5 33.75V30.5H40V38.75C40 41.6495 37.6495 44 34.75 44H13.25C10.3505 44 8 41.6495 8 38.75V30.5H16Z" fill="#212121"/>
</svg>

<svg xmlns="http://www.w3.org/2000/svg" width="48" height="48"><path d="M21.179 18.5a2.68 2.68 0 0 0-2.679 2.679c0 .177.144.321.321.321H29.18a.321.321 0 0 0 .321-.321 2.68 2.68 0 0 0-2.679-2.679H21.18ZM24 4a8.001 8.001 0 0 0-7.951 7.113C11.239 13.872 8 19.058 8 25v3h32v-3c0-5.942-3.24-11.128-8.049-13.887A8.001 8.001 0 0 0 24 4Zm0 5c-1.764 0-3.461.285-5.048.813a5.501 5.501 0 0 1 10.096 0A15.984 15.984 0 0 0 24 9Zm-8 12.179A5.179 5.179 0 0 1 21.179 16h5.642A5.179 5.179 0 0 1 32 21.179 2.821 2.821 0 0 1 29.179 24H18.82A2.821 2.821 0 0 1 16 21.179Zm0 9.321v3.25a1.25 1.25 0 1 0 2.5 0V30.5H40v8.25c0 2.9-2.35 5.25-5.25 5.25h-21.5A5.25 5.25 0 0 1 8 38.75V30.5h8Z"/></svg>
